svg/u1f64c_1f3fe.svg

<svg viewBox="0 0 128 128" xmlns="http://www.w3.org/2000/svg">
  <line fill="none" stroke="#B0BEC5" stroke-linecap="round" stroke-linejoin="round" stroke-miterlimit="10" stroke-width="4" x1="78.76" x2="88.41" y1="31.75" y2="18.41"/>
  <line fill="none" stroke="#B0BEC5" stroke-linecap="round" stroke-linejoin="round" stroke-miterlimit="10" stroke-width="4" x1="49.66" x2="40.6" y1="31.66" y2="20.05"/>
  <line fill="none" stroke="#B0BEC5" stroke-linecap="round" stroke-linejoin="round" stroke-miterlimit="10" stroke-width="4" x1="64.04" x2="64.08" y1="27.84" y2="9.62"/>
  <g id="handGroup_1_">
    <radialGradient id="hand_2_" cx="24.1339" cy="90.6779" gradientUnits="userSpaceOnUse" r="58.4885">
      <stop offset="0.4345" stop-color="#A56C43"/>
      <stop offset="0.8723" stop-color="#8D5738"/>
    </radialGradient>
    <path id="hand" d="M39.66,105.16c0.92-1.78,6.15-2.09,9.93-11.54c1.95-4.87,0.45-10.22,9.2-13.21 c3.19-1.09,4.16-7.27-1.69-7.27c-11.33,0-13.59,7.56-13.59,7.56s-0.37-28.87-0.55-33.3c-0.14-3.4-1.7-6.28-3.71-6.77 c-3.44-0.83-5.08,1.7-5.08,1.7s-0.04-0.8-0.04-4.01c0-4.47-2.46-6.13-5.27-6.33c-2.82-0.2-5.83,1.45-6.01,6.02l0.14,2.98 c0,0-1.05-1.58-4.24-1.8c-2.52-0.17-4.12,1.76-4.37,4.57l-0.65,4.42c0,0-0.86-0.42-3.31,0.26c-2.93,0.82-3.11,5.96-3.11,5.96 S6.34,67.97,5.36,84.56c-0.58,9.78,4.53,17.49,6.77,20.52c1.32,1.78,0.43,14.32,0.06,18.92H39.2c-0.3-3.42-0.61-10.9-0.63-11.38 C38.51,110.22,38.56,107.3,39.66,105.16z" fill="url(#hand_2_)"/>
    <path id="tone" d="M40.64,106.18c1.14-1.91,4.6-3.12,7.34-6.83c2.45-3.32,3.33-7.7,3.6-8.95 c0.79-3.62,1.48-6.75,7.54-8.82c2.11-0.74,3.52-3.22,3.14-5.54c-0.38-2.28-2.3-3.64-5.15-3.64c-6.98,0-11.76,3.42-12.95,5.55 c-0.27-6.3-0.52-30.62-0.53-30.7c-0.5-5.07-1.5-7.11-3.9-8.04c-1.83-0.71-3.78-0.18-5.18,0.73c0,0,0.73-8.93-5.62-8.93 c-7.18,0-6.84,7.96-6.84,8.02c-0.85-0.48-1.99-0.92-3.39-0.82c-6.02,0.42-5.75,8.59-5.75,8.59c-1.37-0.36-5.58-0.96-6.67,4.97 c-0.55,2.99-1.89,32.72-1.89,32.72c-0.57,9.7,4.19,17.43,6.64,20.74l0.32,0.43c0.78,1.06,0.57,12.07-0.09,18.34h1.96 c0.48-4.62,1.15-17.54-0.32-19.52l-0.32-0.43c-2.33-3.13-6.79-10.46-6.26-19.46l1.53-30.7C8.26,47.3,12.8,48,13,50.25v22.27 c-0.9,0.56-1.42,0.96-1.5,1.02c-0.42,0.33-0.5,0.94-0.16,1.37c0.19,0.24,0.48,0.37,0.77,0.37c0.21,0,0.42-0.07,0.6-0.21 c0.08-0.06,7.27-5.2,19.22-5.85c0,0,2.02-0.35,2.05-2.87c0-0.42,0.29-19.69,0.34-21.48c0.06-2.09,2.15-4.28,4.58-3.34 c1.67,0.65,2.07,1.87,2.56,5.9c0.01,0.13,0.02,31.68,0.02,31.68c-10.64,1.1-15.34,4.88-17.58,13.71c-0.2,0.78-0.01,1.06,0.39,1.45 c0.04,0.03,0.69,0.18,1.16-1.19c2.77-7.95,7.78-9.69,12.3-10.58c1.51-0.3,2.81-0.18,4.06-0.43c3.79,0,4.27-7.35,15.3-7.72 c1.87-0.06,3.01,0.71,3.23,2.01c0.22,1.37-0.65,2.94-1.86,3.36c-7.1,2.43-7.97,6.4-8.81,10.25c-0.26,1.17-0.55,2.37-0.98,3.52 c-2.52,6.79-8.33,9.16-9.89,11.45c-1.27,1.88-1.45,5.26-1.2,7.93c0.19,2.12,0.39,8.84,0.5,11.13h2.32 c-0.31-3.85-0.84-10.56-0.87-11.16C39.5,110.44,39.69,107.76,40.64,106.18z M22.1,68.58c-2.99,0.86-5.4,1.91-7.15,2.83l0.04-26.19 c0.08-2.48,1.12-4.91,3.81-5.06c1.73-0.08,2.91,0.93,3.3,1.3V68.58z M31.94,66.98c-3.28,0.1-5.31,0.48-7.89,1.09V38.95 c0.2-2.52,1.29-6,4.74-6c3.2,0,3.45,3.15,3.45,6.5C32.24,42.65,31.94,66.98,31.94,66.98z" fill="#875334"/>
  </g>
  <g id="handGroup">
    <radialGradient id="hand_3_" cx="85.48" cy="90.6913" gradientUnits="userSpaceOnUse" r="58.4858">
      <stop offset="0.4345" stop-color="#A56C43"/>
      <stop offset="0.8723" stop-color="#8D5738"/>
    </radialGradient>
    <path id="hand_1_" d="M115.87,105.08c2.24-3.03,7.35-10.74,6.77-20.52 c-0.98-16.58-1.95-30.15-1.95-30.15s-0.18-5.14-3.11-5.96c-2.45-0.68-3.31-0.26-3.31-0.26l-0.65-4.42 c-0.25-2.81-1.85-4.74-4.37-4.57c-3.19,0.22-4.24,1.8-4.24,1.8l0.14-2.98c-0.18-4.57-3.19-6.22-6.01-6.02 c-2.81,0.2-5.27,1.86-5.27,6.33c0,3.21-0.04,4.01-0.04,4.01s-1.64-2.53-5.08-1.7c-2.01,0.49-3.57,3.37-3.71,6.77 c-0.18,4.43-0.55,33.3-0.55,33.3s-2.26-7.56-13.59-7.56c-5.85,0-4.88,6.18-1.69,7.27c8.75,2.99,7.25,8.34,9.2,13.21 c3.78,9.45,9.01,9.76,9.93,11.54c1.1,2.14,1.15,5.06,1.09,7.46c-0.02,0.48-0.32,7.94-0.62,11.37h27.01 C115.44,119.4,114.55,106.86,115.87,105.08z" fill="url(#hand_3_)"/>
    <path id="tone_1_" d="M116.66,105.65l0.32-0.43c2.46-3.3,7.21-11.03,6.64-20.74c0,0-1.34-29.73-1.89-32.72 c-1.09-5.94-5.3-5.33-6.67-4.97c0,0,0.27-8.17-5.75-8.59c-1.39-0.1-2.54,0.33-3.39,0.82c0-0.07,0.34-8.02-6.84-8.02 c-6.35,0-5.62,8.93-5.62,8.93c-1.4-0.91-3.35-1.44-5.18-0.73c-2.4,0.93-3.4,2.97-3.9,8.04c-0.01,0.09-0.25,24.4-0.53,30.7 c-1.19-2.13-5.98-5.55-12.95-5.55c-2.85,0-4.77,1.36-5.15,3.64c-0.39,2.33,1.02,4.81,3.14,5.54c6.06,2.07,6.74,5.2,7.54,8.82 c0.27,1.25,1.15,5.63,3.6,8.95c2.75,3.72,6.21,4.93,7.34,6.83c0.94,1.58,1.13,4.26,1.08,6.66c-0.01,0.6-0.55,7.32-0.86,11.17h2.32 c0.12-2.3,0.31-9,0.5-11.11c0.25-2.68,0.07-6.06-1.2-7.93c-1.56-2.29-7.37-4.66-9.89-11.45c-0.43-1.15-0.72-2.35-0.98-3.52 c-0.84-3.85-1.71-7.82-8.81-10.25c-1.22-0.44-2.09-2.01-1.86-3.38c0.22-1.29,1.36-2.07,3.23-2.01c11.03,0.37,11.52,7.72,15.3,7.72 c1.25,0.25,2.55,0.13,4.06,0.43c4.52,0.89,9.53,2.63,12.3,10.58c0.48,1.37,1.13,1.23,1.16,1.19c0.4-0.39,0.59-0.67,0.39-1.45 c-2.25-8.83-6.94-12.61-17.58-13.71c0,0,0.01-31.55,0.02-31.68c0.49-4.02,0.9-5.25,2.56-5.9c2.42-0.94,4.52,1.26,4.58,3.34 c0.05,1.79,0.34,21.06,0.34,21.48c0.02,2.52,2.05,2.87,2.05,2.87c11.94,0.65,19.14,5.78,19.22,5.85c0.18,0.14,0.39,0.21,0.6,0.21 c0.29,0,0.58-0.13,0.77-0.37c0.33-0.42,0.26-1.03-0.16-1.37c-0.08-0.06-0.6-0.46-1.5-1.02V50.25c0.2-2.25,4.74-2.96,5.14,3.66 l1.53,30.7c0.53,9-3.93,16.33-6.26,19.46l-0.32,0.43c-1.47,1.98-0.8,14.86-0.32,19.5h1.97 C116.09,117.74,115.87,106.72,116.66,105.65z M103.95,68.07c-2.57-0.61-4.61-0.99-7.89-1.09c0,0-0.3-24.33-0.3-27.53 c0-3.35,0.26-6.5,3.45-6.5c3.45,0,4.54,3.48,4.74,6V68.07z M105.9,68.58V41.46c0.38-0.38,1.57-1.39,3.3-1.3 c2.69,0.15,3.73,2.58,3.81,5.06l0.04,26.19C111.3,70.49,108.89,69.44,105.9,68.58z" fill="#875334"/>
  </g>
</svg>

<svg viewBox="0 0 128 128" xmlns="http://www.w3.org/2000/svg">
  <defs>
    <radialGradient id="hand_2_" cx="24.1339" cy="90.6779" gradientUnits="userSpaceOnUse" r="58.4885">
      <stop offset="0.4345" stop-color="#A56C43"/>
      <stop offset="0.8723" stop-color="#8D5738"/>
    </radialGradient>
    <radialGradient id="hand_3_" cx="85.48" cy="90.6913" gradientUnits="userSpaceOnUse" r="58.4858">
      <stop offset="0.4345" stop-color="#A56C43"/>
      <stop offset="0.8723" stop-color="#8D5738"/>
    </radialGradient>
  </defs>
  <path d="M77.14,30.578 L86.79,17.238 Q87.962,15.617 89.582,16.79 Q90.392,17.376 90.505,18.074 Q90.617,18.772 90.03,19.582 L80.38,32.922 Q79.208,34.543 77.588,33.37 Q76.778,32.784 76.665,32.086 Q76.553,31.388 77.14,30.578 Z" fill="#B0BEC5"/>
  <path d="M48.083,32.89 L39.023,21.28 Q37.793,19.704 39.37,18.473 Q40.946,17.243 42.177,18.82 L51.237,30.43 Q52.467,32.006 50.89,33.237 Q49.314,34.467 48.083,32.89 Z" fill="#B0BEC5"/>
  <path d="M62.04,27.836 L62.08,9.616 Q62.084,7.616 64.084,7.62 Q65.084,7.622 65.583,8.123 Q66.082,8.624 66.08,9.624 L66.04,27.844 Q66.036,29.844 64.036,29.84 Q63.036,29.838 62.537,29.337 Q62.038,28.836 62.04,27.836 Z" fill="#B0BEC5"/>
  <path id="hand" d="M39.66,105.16 C40.58,103.38 45.81,103.07 49.59,93.62 C51.54,88.75 50.04,83.4 58.79,80.41 C61.98,79.32 62.95,73.14 57.1,73.14 C45.77,73.14 43.51,80.7 43.51,80.7 C43.51,80.7 43.14,51.83 42.96,47.4 C42.82,44 41.26,41.12 39.25,40.63 C35.81,39.8 34.17,42.33 34.17,42.33 C34.17,42.33 34.13,41.53 34.13,38.32 C34.13,33.85 31.67,32.19 28.86,31.99 C26.04,31.79 23.03,33.44 22.85,38.01 L22.99,40.99 C22.99,40.99 21.94,39.41 18.75,39.19 C16.23,39.02 14.63,40.95 14.38,43.76 L13.73,48.18 C13.73,48.18 12.87,47.76 10.42,48.44 C7.49,49.26 7.31,54.4 7.31,54.4 C7.31,54.4 6.34,67.97 5.36,84.56 C4.78,94.34 9.89,102.05 12.13,105.08 C13.45,106.86 12.56,119.4 12.19,124 L39.2,124 C38.9,120.58 38.59,113.1 38.57,112.62 C38.51,110.22 38.56,107.3 39.66,105.16 Z" fill="url(#hand_2_)"/>
  <path id="tone" d="M40.64,106.18 C41.78,104.27 45.24,103.06 47.98,99.35 C50.43,96.03 51.31,91.65 51.58,90.4 C52.37,86.78 53.06,83.65 59.12,81.58 C61.23,80.84 62.64,78.36 62.26,76.04 C61.88,73.76 59.96,72.4 57.11,72.4 C50.13,72.4 45.35,75.82 44.16,77.95 C43.89,71.65 43.64,47.33 43.63,47.25 C43.13,42.18 42.13,40.14 39.73,39.21 C37.9,38.5 35.95,39.03 34.55,39.94 C34.55,39.94 35.28,31.01 28.93,31.01 C21.75,31.01 22.09,38.97 22.09,39.03 C21.24,38.55 20.1,38.11 18.7,38.21 C12.68,38.63 12.95,46.8 12.95,46.8 C11.58,46.44 7.37,45.84 6.28,51.77 C5.73,54.76 4.39,84.49 4.39,84.49 C3.82,94.19 8.58,101.92 11.03,105.23 L11.35,105.66 C12.13,106.72 11.92,117.73 11.26,124 L13.22,124 C13.7,119.38 14.37,106.46 12.9,104.48 L12.58,104.05 C10.25,100.92 5.79,93.59 6.32,84.59 L7.85,53.89 C8.26,47.3 12.8,48 13,50.25 L13,72.52 C12.1,73.08 11.58,73.48 11.5,73.54 C11.08,73.87 11,74.48 11.34,74.91 C11.53,75.15 11.82,75.28 12.11,75.28 C12.32,75.28 12.53,75.21 12.71,75.07 C12.79,75.01 19.98,69.87 31.93,69.22 C31.93,69.22 33.95,68.87 33.98,66.35 C33.98,65.93 34.27,46.66 34.32,44.87 C34.38,42.78 36.47,40.59 38.9,41.53 C40.57,42.18 40.97,43.4 41.46,47.43 C41.47,47.56 41.48,79.11 41.48,79.11 C30.84,80.21 26.14,83.99 23.9,92.82 C23.7,93.6 23.89,93.88 24.29,94.27 C24.33,94.3 24.98,94.45 25.45,93.08 C28.22,85.13 33.23,83.39 37.75,82.5 C39.26,82.2 40.56,82.32 41.81,82.07 C45.6,82.07 46.08,74.72 57.11,74.35 C58.98,74.29 60.12,75.06 60.34,76.36 C60.56,77.73 59.69,79.3 58.48,79.72 C51.38,82.15 50.51,86.12 49.67,89.97 C49.41,91.14 49.12,92.34 48.69,93.49 C46.17,100.28 40.36,102.65 38.8,104.94 C37.53,106.82 37.35,110.2 37.6,112.87 C37.79,114.99 37.99,121.71 38.1,124 L40.42,124 C40.11,120.15 39.58,113.44 39.55,112.84 C39.5,110.44 39.69,107.76 40.64,106.18 Z M22.1,68.58 C19.11,69.44 16.7,70.49 14.95,71.41 L14.99,45.22 C15.07,42.74 16.11,40.31 18.8,40.16 C20.53,40.08 21.71,41.09 22.1,41.46 L22.1,68.58 Z M31.94,66.98 C28.66,67.08 26.63,67.46 24.05,68.07 L24.05,38.95 C24.25,36.43 25.34,32.95 28.79,32.95 C31.99,32.95 32.24,36.1 32.24,39.45 C32.24,42.65 31.94,66.98 31.94,66.98 Z" fill="#875334"/>
  <path id="hand_1_" d="M115.87,105.08 C118.11,102.05 123.22,94.34 122.64,84.56 C121.66,67.98 120.69,54.41 120.69,54.41 C120.69,54.41 120.51,49.27 117.58,48.45 C115.13,47.77 114.27,48.19 114.27,48.19 L113.62,43.77 C113.37,40.96 111.77,39.03 109.25,39.2 C106.06,39.42 105.01,41 105.01,41 L105.15,38.02 C104.97,33.45 101.96,31.8 99.14,32 C96.33,32.2 93.87,33.86 93.87,38.33 C93.87,41.54 93.83,42.34 93.83,42.34 C93.83,42.34 92.19,39.81 88.75,40.64 C86.74,41.13 85.18,44.01 85.04,47.41 C84.86,51.84 84.49,80.71 84.49,80.71 C84.49,80.71 82.23,73.15 70.9,73.15 C65.05,73.15 66.02,79.33 69.21,80.42 C77.96,83.41 76.46,88.76 78.41,93.63 C82.19,103.08 87.42,103.39 88.34,105.17 C89.44,107.31 89.49,110.23 89.43,112.63 C89.41,113.11 89.11,120.57 88.81,124 L115.82,124 C115.44,119.4 114.55,106.86 115.87,105.08 Z" fill="url(#hand_3_)"/>
  <path id="tone_1_" d="M116.66,105.65 L116.98,105.22 C119.44,101.92 124.19,94.19 123.62,84.48 C123.62,84.48 122.28,54.75 121.73,51.76 C120.64,45.82 116.43,46.43 115.06,46.79 C115.06,46.79 115.33,38.62 109.31,38.2 C107.92,38.1 106.77,38.53 105.92,39.02 C105.92,38.95 106.26,31 99.08,31 C92.73,31 93.46,39.93 93.46,39.93 C92.06,39.02 90.11,38.49 88.28,39.2 C85.88,40.13 84.88,42.17 84.38,47.24 C84.37,47.33 84.13,71.64 83.85,77.94 C82.66,75.81 77.87,72.39 70.9,72.39 C68.05,72.39 66.13,73.75 65.75,76.03 C65.36,78.36 66.77,80.84 68.89,81.57 C74.95,83.64 75.63,86.77 76.43,90.39 C76.7,91.64 77.58,96.02 80.03,99.34 C82.78,103.06 86.24,104.27 87.37,106.17 C88.31,107.75 88.5,110.43 88.45,112.83 C88.44,113.43 87.9,120.15 87.59,124 L89.91,124 C90.03,121.7 90.22,115 90.41,112.89 C90.66,110.21 90.48,106.83 89.21,104.96 C87.65,102.67 81.84,100.3 79.32,93.51 C78.89,92.36 78.6,91.16 78.34,89.99 C77.5,86.14 76.63,82.17 69.53,79.74 C68.31,79.3 67.44,77.73 67.67,76.36 C67.89,75.07 69.03,74.29 70.9,74.35 C81.93,74.72 82.42,82.07 86.2,82.07 C87.45,82.32 88.75,82.2 90.26,82.5 C94.78,83.39 99.79,85.13 102.56,93.08 C103.04,94.45 103.69,94.31 103.72,94.27 C104.12,93.88 104.31,93.6 104.11,92.82 C101.86,83.99 97.17,80.21 86.53,79.11 C86.53,79.11 86.54,47.56 86.55,47.43 C87.04,43.41 87.45,42.18 89.11,41.53 C91.53,40.59 93.63,42.79 93.69,44.87 C93.74,46.66 94.03,65.93 94.03,66.35 C94.05,68.87 96.08,69.22 96.08,69.22 C108.02,69.87 115.22,75 115.3,75.07 C115.48,75.21 115.69,75.28 115.9,75.28 C116.19,75.28 116.48,75.15 116.67,74.91 C117,74.49 116.93,73.88 116.51,73.54 C116.43,73.48 115.91,73.08 115.01,72.52 L115.01,50.25 C115.21,48 119.75,47.29 120.15,53.91 L121.68,84.61 C122.21,93.61 117.75,100.94 115.42,104.07 L115.1,104.5 C113.63,106.48 114.3,119.36 114.78,124 L116.75,124 C116.09,117.74 115.87,106.72 116.66,105.65 Z M103.95,68.07 C101.38,67.46 99.34,67.08 96.06,66.98 C96.06,66.98 95.76,42.65 95.76,39.45 C95.76,36.1 96.02,32.95 99.21,32.95 C102.66,32.95 103.75,36.43 103.95,38.95 L103.95,68.07 Z M105.9,68.58 L105.9,41.46 C106.28,41.08 107.47,40.07 109.2,40.16 C111.89,40.31 112.93,42.74 113.01,45.22 L113.05,71.41 C111.3,70.49 108.89,69.44 105.9,68.58 Z" fill="#875334"/>
</svg>
